X: 0004
T: S\"arna Hurven: Stor-Hurven
%R: polska
B: Paul B\"ackstr\"om's "L\aatar fr\aan Dalarna" collection" 1974
Z: 2022 John Chambers <jc:trillian.mit.edu>
M: 3/4
L: 1/16
P: (G-str\"angen uppst\"amt till a.)
K: Dm
%%text K.E.F.11.
% - - - - - - - - - -
|:\
[E3A,2]F [D3A,2]E ^CA,CD | [E3A,2]F [D3A,2]E ^CA,CD | [E3A,2]F [D3A,2]E ^CA,CD |[1 D2z2 [E8A,8] :|[2 D2z2 A,8 |:
A3^c d3e [f3A2]a | (3(g2e2g2) a2e2 [f2A2]a2 |[1 g2eg f3d [e3A3]^c | d2e2 f2d2 ^c2=B2 :|
|[2 (3(g2e2g2) f2e2 [e3A3]^c | "_D.C. al Fine."d2z2 A8 |]\
[K:=B][K:D] "^N\aagot l\aangsammare."f3e d3f a3f | d2ec "_Fine"[d8F8] |]
% - - - - - - - - - -
%%text Jmf. S.L.nr 503.

%%sep 2 1 500
%%sep 1 1 500

